X: 14
T: Paddy O'Rafferty
R: jig
M: 6/8
L: 1/8
K: Gmaj
GAB D2 E | GAB AGE | GAB D2 E | GAG GED | GAB D2 E | GAB d2 e | dBG AGA | BGG G2 :| dBB dBB | dBB A2 B | dBB dBA | GAB GED | dBB dBe | dBd g2 e | dBG AGA | BGG G3 :|


Tune 741	Setting 13825

